X:1
T:Title
%%score { ( 1 3 ) | ( 2 4 ) }
L:1/8
Q:1/4=120
M:4/4
K:Db
V:1 treble nm="Grand Piano"
V:3 treble 
V:2 bass 
V:4 bass 
V:1
 D4 G2 F2 | E6 D2 | D2[K:bass] C2 D2 [G,CE]2 | [G,CE]4 [DF]4 | [A,DF]4 [B,DF]2 [B,DF]2 | E2 z2 z4 | %6
w: H.~G.~Warren * *||||||
 [A,DF]2 [A,E]2 [F,DF]2 [D=G]2 | [CA]8 | [CA]4 B2 =G2 | A4 F4 | [DG]2 G2 F2 F2 | E4 G4 | B4 B2 c2 | %13
w: |||||||
 d2 [FA]2 [DA]2[K:bass] [F,CF]2 | [F,D]4 [G,CE]4 | [F,D]8 |] %16
w: |||
V:2
 [D,F,A,]4 [D,B,D]2 [D,A,C]2 | [E,G,C]6 [E,G,B,]2 | [A,,F,A,]2 [A,,E,A,]2 [A,,F,A,]2 A,,2 | %3
 D,4 z2 A,2 | D,4 B,,2 B,,2 | z2 D2 A,,4 | D,2 C,2 B,,2 E,2 | [A,,E,]8 | %8
 [A,,A,]4 [E,=G,E]2 [E,B,D]2 | [F,A,C]4 [D,A,D]4 | [B,,B,]2 [B,D]2 [A,C]2 [A,C]2 | B,4 [G,B,E]4 | %12
 [G,B,E]4 [G,B,E]2 [G,A,E]2 | [F,A,D]2 [D,A,]2 [A,,F,]2 A,,2 | B,,4 A,,4 | D,8 |] %16
V:3
 x8 | x8 | x2[K:bass] x6 | z4 F,2 z2 | x8 | [B,G]4 [A,CG]4 | x8 | x8 | x8 | x8 | x8 | x8 | x8 | %13
 x6[K:bass] x2 | x8 | x8 |] %16
V:4
 x8 | x8 | x8 | z4 D,4 | x8 | E,4 z4 | x8 | x8 | x8 | x8 | x8 | x8 | x8 | x8 | x8 | x8 |] %16

